X: 40225
T: Tioram Castle
R: waltz
M: 3/4
K: Amajor
|:A4 B2|c3 BcB|A2 B2c2|e3 (fa2)|f3 ed2|c3 BcB|
A2 G2 A2|B3 BcB|B3 (ga2)|a3 faf|e2 d2 c2|d3 efe|
e3 d c2|B3 ABA|A2 G2 B2|A6:|
|:A3 (ga2)|a3 faf|e2 d2 c2|d3 (ef2)|e4 dc|d3 (ef2)|
a2 g2 f2|e3 fga|a3 (ga2)|a3 c'ba|a2 f2 e2|d3 cdc|
A2 B2 c2|d3 BcB|A2 G2 B2|A6:|

